icons/sun.svg

<svg width="23" height="23" viewBox="0 0 23 23" fill="none" xmlns="http://www.w3.org/2000/svg">
<path d="M17.6923 11.5C17.6923 14.92 14.92 17.6923 11.5 17.6923C8.08001 17.6923 5.30768 14.92 5.30768 11.5C5.30768 8.08003 8.08001 5.30769 11.5 5.30769C14.92 5.30769 17.6923 8.08003 17.6923 11.5Z" fill="black"/>
<path d="M10.6154 0H12.3846V3.53846H10.6154V0Z" fill="black"/>
<path d="M10.6154 19.4615H12.3846V23H10.6154V19.4615Z" fill="black"/>
<path d="M0 10.6154H3.53846V12.3846H0V10.6154Z" fill="black"/>
<path d="M19.4615 10.6154H23V12.3846H19.4615V10.6154Z" fill="black"/>
<path d="M2.7428 3.99341L3.9939 2.74231L6.49589 5.24431L5.24479 6.4954L2.7428 3.99341Z" fill="black"/>
<path d="M16.5034 17.7555L17.7545 16.5044L20.2565 19.0064L19.0054 20.2575L16.5034 17.7555Z" fill="black"/>
<path d="M2.74231 19.0066L5.24431 16.5046L6.4954 17.7557L3.99341 20.2577L2.74231 19.0066Z" fill="black"/>
<path d="M16.5044 5.24601L19.0064 2.74402L20.2575 3.99512L17.7555 6.49711L16.5044 5.24601Z" fill="black"/>
</svg>

<?xml version="1.0" encoding="utf-8"?>
<!-- Generator: Adobe Illustrator 25.4.1, SVG Export Plug-In . SVG Version: 6.00 Build 0)  -->
<svg version="1.1" id="Слой_1" xmlns="http://www.w3.org/2000/svg" xmlns:xlink="http://www.w3.org/1999/xlink" x="0px" y="0px"
	 viewBox="0 0 23 23" style="enable-background:new 0 0 23 23;" xml:space="preserve">
<style type="text/css">
	.st0{fill:#728DBC;}
</style>
<path class="st0" d="M17.7,11.5c0,3.4-2.8,6.2-6.2,6.2c-3.4,0-6.2-2.8-6.2-6.2c0-3.4,2.8-6.2,6.2-6.2C14.9,5.3,17.7,8.1,17.7,11.5z"
	/>
<path class="st0" d="M10.6,0h1.8v3.5h-1.8V0z"/>
<path class="st0" d="M10.6,19.5h1.8V23h-1.8V19.5z"/>
<path class="st0" d="M0,10.6h3.5v1.8H0V10.6z"/>
<path class="st0" d="M19.5,10.6H23v1.8h-3.5V10.6z"/>
<path class="st0" d="M2.7,4L4,2.7l2.5,2.5L5.2,6.5L2.7,4z"/>
<path class="st0" d="M16.5,17.8l1.3-1.3l2.5,2.5L19,20.3L16.5,17.8z"/>
<path class="st0" d="M2.7,19l2.5-2.5l1.3,1.3L4,20.3L2.7,19z"/>
<path class="st0" d="M16.5,5.2L19,2.7L20.3,4l-2.5,2.5L16.5,5.2z"/>
</svg>
